packages/flutter/assets/icons/double.svg

<?xml version="1.0" encoding="UTF-8"?>
<svg width="24px" height="24px" viewBox="0 0 24 24" version="1.1" xmlns="http://www.w3.org/2000/svg" xmlns:xlink="http://www.w3.org/1999/xlink">
    <title>double</title>
    <g id="double" stroke="none" stroke-width="1" fill="none" fill-rule="evenodd">
        <path d="M9.81944255,13.503988 L4.73300514,18.4545808 L12.4151234,18.4545808 C12.6605833,18.4545808 12.8647318,18.631456 12.9070678,18.8647052 L12.9151234,18.9545808 C12.9151234,19.2000407 12.7382483,19.4041892 12.5049991,19.4465252 L12.4151234,19.4545808 L3.50100514,19.4545808 C3.05194219,19.4545808 2.83052924,18.9085418 3.15277281,18.5957853 L8.11400784,13.7719976 C9.12597491,12.7849892 9.81726522,12.1071836 10.1875739,11.7388814 C14.5558454,7.39427833 9.75910518,2.37796319 4.51614966,6.57915882 C4.30065572,6.75183474 3.98598188,6.71712388 3.81330595,6.50162995 C3.64063003,6.28613601 3.67534089,5.97146216 3.89083482,5.79878624 C10.033807,0.876404626 16.0582945,7.06320271 11.047974,12.2898301 L9.81944255,13.503988 Z M15.2853106,12.543172 L15.3545585,12.6010274 L18.0010051,15.2475808 L20.6474518,12.6010274 C20.8427139,12.4057653 21.1592964,12.4057653 21.3545585,12.6010274 C21.5281249,12.7745938 21.54741,13.0440182 21.412414,13.2388863 L21.3545585,13.3081342 L18.7080051,15.9545808 L21.3545585,18.6010274 C21.5498207,18.7962896 21.5498207,19.1128721 21.3545585,19.3081342 C21.1809922,19.4817006 20.9115678,19.5009857 20.7166996,19.3659897 L20.6474518,19.3081342 L18.0010051,16.6615808 L15.3545585,19.3081342 C15.1592964,19.5033964 14.8427139,19.5033964 14.6474518,19.3081342 C14.4738854,19.1345679 14.4546002,18.8651435 14.5895963,18.6702753 L14.6474518,18.6010274 L17.2940051,15.9545808 L14.6474518,13.3081342 C14.4521896,13.1128721 14.4521896,12.7962896 14.6474518,12.6010274 C14.7993223,12.4491569 15.0245842,12.4154079 15.2090731,12.4997804 L15.2853106,12.543172 Z" id="Path-12" fill="#303846"></path>
    </g>
</svg>

<svg xmlns="http://www.w3.org/2000/svg" width="24" height="24" viewBox="0 0 24 24"><path fill-rule="evenodd" d="M9.82 13.504l-5.087 4.95h7.682a.5.5 0 0 1 .492.41l.008.09a.5.5 0 0 1-.41.493l-.09.008H3.501a.5.5 0 0 1-.348-.86l4.961-4.823a357.282 357.282 0 0 0 2.074-2.033c4.368-4.345-.429-9.361-5.672-5.16a.5.5 0 0 1-.625-.78c6.143-4.923 12.167 1.264 7.157 6.49l-1.229 1.215zm5.465-.96l.07.057L18 15.248l2.646-2.647a.5.5 0 0 1 .765.638l-.057.07-2.647 2.646 2.647 2.646a.5.5 0 0 1-.638.765l-.07-.058L18 16.662l-2.646 2.646a.5.5 0 0 1-.765-.638l.057-.069 2.647-2.646-2.647-2.647a.5.5 0 0 1 .562-.808l.076.043z"/></svg>
